libs/ui/packages/crypto-icons/src/svg/HTML.svg

<svg width="24" height="24" viewBox="0 0 24 24" fill="none">
<path d="M12.015 12.3337V18.3285L16.4752 17.127L17.523 5.5845H12.015V10.4835L12.243 9.77325H12.84L12.015 12.3337ZM6.477 17.9767L5.25 4.5H18.75L17.523 17.9767L11.985 19.5L6.477 17.9767ZM10.3492 12.882V12.3262L8.4975 11.5883L10.35 10.8458V10.2892L7.70475 11.364V11.808L10.3492 12.882ZM16.299 11.808L13.6537 12.882V12.3262L15.5062 11.586L13.6537 10.8458V10.2892L16.299 11.364V11.808ZM12.015 12.333V10.4835L11.0273 13.5637H11.6182L12.015 12.333Z" fill="#CFA967"/>
</svg>

<svg width="24" height="24" viewBox="0 0 24 24" fill="none"><path fill="#cfa967" d="M12.015 12.334v5.994l4.46-1.201 1.048-11.542h-5.508v4.898l.228-.71h.597zm-5.538 5.643L5.25 4.5h13.5l-1.227 13.477-5.538 1.523zm3.872-5.095v-.556l-1.851-.738 1.852-.742v-.557l-2.645 1.075v.444zm5.95-1.074-2.645 1.074v-.556l1.852-.74-1.852-.74v-.557l2.645 1.075zm-4.284.525v-1.85l-.988 3.08h.591z"/></svg>
